assets/images/icons/icono-inicio.svg

<?xml version="1.0" encoding="UTF-8"?>
<svg xmlns="http://www.w3.org/2000/svg" xmlns:xlink="http://www.w3.org/1999/xlink" width="24px" height="24px" viewBox="0 0 24 24" version="1.1">
<g id="surface1">
<path style="fill:none;stroke-width:2;stroke-linecap:round;stroke-linejoin:round;stroke:rgb(0%,0%,0%);stroke-opacity:1;stroke-miterlimit:4;" d="M 15 21 L 15 13 C 15 12.449219 14.550781 12 14 12 L 10 12 C 9.449219 12 9 12.449219 9 13 L 9 21 "/>
<path style="fill:none;stroke-width:2;stroke-linecap:round;stroke-linejoin:round;stroke:rgb(0%,0%,0%);stroke-opacity:1;stroke-miterlimit:4;" d="M 3 10 C 3 9.410156 3.257812 8.851562 3.710938 8.472656 L 10.710938 2.472656 C 11.453125 1.84375 12.546875 1.84375 13.289062 2.472656 L 20.289062 8.472656 C 20.742188 8.851562 21 9.410156 21 10 L 21 19 C 21 20.105469 20.105469 21 19 21 L 5 21 C 3.894531 21 3 20.105469 3 19 Z M 3 10 "/>
</g>
</svg>

<svg xmlns="http://www.w3.org/2000/svg" width="24" height="24" viewBox="0 0 24 24" fill="none" stroke="currentColor" stroke-width="2" stroke-linecap="round" stroke-linejoin="round" class="lucide lucide-house w-5 h-5 flex-shrink-0"><path d="M15 21v-8a1 1 0 0 0-1-1h-4a1 1 0 0 0-1 1v8"></path><path d="M3 10a2 2 0 0 1 .709-1.528l7-5.999a2 2 0 0 1 2.582 0l7 5.999A2 2 0 0 1 21 10v9a2 2 0 0 1-2 2H5a2 2 0 0 1-2-2z"></path></svg>
